icons/src/fluent/svg/document_24_regular.svg

<svg width="24" height="24" viewBox="0 0 24 24" fill="none" xmlns="http://www.w3.org/2000/svg">
<path d="M6 2C4.89543 2 4 2.89543 4 4V20C4 21.1046 4.89543 22 6 22H18C19.1046 22 20 21.1046 20 20V9.82777C20 9.29733 19.7893 8.78863 19.4142 8.41355L13.5864 2.58579C13.2114 2.21071 12.7027 2 12.1722 2H6ZM5.5 4C5.5 3.72386 5.72386 3.5 6 3.5H12V8C12 9.10457 12.8954 10 14 10H18.5V20C18.5 20.2761 18.2761 20.5 18 20.5H6C5.72386 20.5 5.5 20.2761 5.5 20V4ZM17.3793 8.5H14C13.7239 8.5 13.5 8.27614 13.5 8V4.62066L17.3793 8.5Z" fill="#212121"/>
</svg>

<svg width="24" height="24" fill="none" viewBox="0 0 24 24" xmlns="http://www.w3.org/2000/svg"><path d="M18.5 20a.5.5 0 0 1-.5.5H6a.5.5 0 0 1-.5-.5V4a.5.5 0 0 1 .5-.5h6V8a2 2 0 0 0 2 2h4.5v10Zm-5-15.379L17.378 8.5H14a.5.5 0 0 1-.5-.5V4.621Zm5.914 3.793-5.829-5.828c-.026-.026-.058-.046-.085-.07a2.072 2.072 0 0 0-.219-.18c-.04-.027-.086-.045-.128-.068-.071-.04-.141-.084-.216-.116a1.977 1.977 0 0 0-.624-.138C12.266 2.011 12.22 2 12.172 2H6a2 2 0 0 0-2 2v16a2 2 0 0 0 2 2h12a2 2 0 0 0 2-2V9.828a2 2 0 0 0-.586-1.414Z" fill="#212121"/></svg>
